X:1
T:Title
%%score { ( 1 3 ) | ( 2 4 ) }
L:1/8
M:9/8
K:Eb
V:1 treble nm="Grand Piano"
V:3 treble 
V:2 bass 
V:4 bass 
V:1
 z3 z3[Q:1/4=107] EFG | G3 E3 EGB | B3 G3 EFG | G3 E3 [FB][FA][EG] | [DF]6 EFG | G3 E3 EGB | %6
 B3 G3 [Ee][Ee][Ee] | [Ee]3 [EG]3 [DB][DA][DF] |[M:3/4] E6 |[M:3/8] [GB][GB][GB] | %10
[M:9/8] [GB]3 [EG]3 [Ge][Ge][Ge] | [Ge]3 [GB]3 [GB][GB][GB] | [Ac]3 [Ac]3 [=Ac][Bd][Ae] | d6 z3 | %14
 [Ge]3 [Ge]3 [Ge][Ge][Ee] |[M:21/16] [Ee]3 [Ee]3/2- [Ee]3 [EB][EG]/-[EG]/E | %16
[M:9/8] [DB]3 [DB]3 [DB][DA][DF] |[M:3/4] E6 |] %18
V:2
 z3 z3 [E,G,][E,A,E][E,B,E] | [E,B,E]3 [E,G,]3 [E,G,][E,B,E][E,G,E] | %2
 [E,G,E]3 [E,B,E]3 [E,G,][E,A,E][E,B,E] | [E,B,E]3 [E,G,]3 [D,B,][D,B,][E,B,] | %4
 [B,,B,]6 [E,G,][E,A,E][E,B,E] | [E,B,E]3 [E,G,]3 [E,G,][E,B,E][E,G,E] | %6
 [E,G,E]3 [E,B,E]3 [=B,,_G,][B,,G,][B,,G,] | [B,,G,]3 [B,,B,]3 [B,,B,][B,,B,][B,,A,] | %8
[M:3/4] [E,G,]6 |[M:3/8] [E,E][E,E][E,E] |[M:9/8] [E,E]3 [E,B,]3 [E,B,][E,B,][E,B,] | %11
 [E,B,]3 [E,E]3 [E,E][E,E][E,E] | [A,E]3 [A,E]3 [F,F][F,F][F,F] | B3 z3 z3[K:bass] | %14
 [E,B,]3 [E,B,]3 [E,B,][E,B,][E,G,] | %15
[M:21/16] [=B,,_G,]3 [B,,G,]3/2- [B,,G,]3 [_B,,G,][B,,B,]/-[B,,B,]/[B,,=G,] | %16
[M:9/8] [B,,F,]3 [B,,F,]3 [B,,F,][B,,B,][B,,A,] |[M:3/4] [E,G,]6 |] %18
V:3
 x9 | x9 | x9 | x9 | x9 | x9 | x9 | x9 |[M:3/4] x6 |[M:3/8] x3 |[M:9/8] x9 | x9 | x9 | z3 A3 dcB | %14
 x9 |[M:21/16] x21/2 |[M:9/8] x9 |[M:3/4] x6 |] %18
V:4
 x9 | x9 | x9 | x9 | x9 | x9 | x9 | x9 |[M:3/4] x6 |[M:3/8] x3 |[M:9/8] x9 | x9 | x9 | %13
 [B,F]6 [B,F][K:bass][B,E][B,D] | x9 |[M:21/16] x21/2 |[M:9/8] x9 |[M:3/4] x6 |] %18

